KINDER
CUT[SUSE LEWE SUSE WAT RUSCHELT INT STROH]
REG[Europa, Mitteleuropa, Deutschland, Bielefeld]
KEY[K0054A 08  F 3/4]
MEL[  5_.654  3_3_3_  2_1_2_  1__
    3_  5_.654  3_3_3_  2_1_2_  1__0_
    2_2_2_  3_3_3_  4_4_3_  2__
    13  5_.654  3_3_3_  2_1_2_  1__0_ //] >>
FCT[Kinder -, Wiegen - Lied]
